public/images/homePage/footer/profile.svg

<svg width="33" height="38" viewBox="0 0 33 38" fill="none" xmlns="http://www.w3.org/2000/svg">
<path d="M2.83139 36V28.7273H5.55866C6.11738 28.7273 6.58613 28.8314 6.96491 29.0398C7.34607 29.2481 7.63371 29.5346 7.82784 29.8991C8.02434 30.2614 8.12259 30.6733 8.12259 31.1349C8.12259 31.6013 8.02434 32.0156 7.82784 32.3778C7.63134 32.7401 7.34134 33.0253 6.95781 33.2337C6.57429 33.4396 6.10199 33.5426 5.54091 33.5426H3.73338V32.4595H5.36335C5.69006 32.4595 5.95758 32.4027 6.16591 32.2891C6.37424 32.1754 6.52813 32.0192 6.62756 31.8203C6.72936 31.6214 6.78026 31.393 6.78026 31.1349C6.78026 30.8769 6.72936 30.6496 6.62756 30.4531C6.52813 30.2566 6.37306 30.1039 6.16236 29.995C5.95402 29.8838 5.68532 29.8281 5.35625 29.8281H4.14886V36H2.83139ZM8.81012 36V30.5455H10.0566V31.4545H10.1134C10.2128 31.1397 10.3833 30.897 10.6248 30.7266C10.8686 30.5537 11.1468 30.4673 11.4593 30.4673C11.5303 30.4673 11.6096 30.4709 11.6972 30.478C11.7872 30.4827 11.8617 30.491 11.9209 30.5028V31.6854C11.8665 31.6664 11.7801 31.6499 11.6617 31.6357C11.5457 31.6191 11.4332 31.6108 11.3243 31.6108C11.0899 31.6108 10.8792 31.6617 10.6922 31.7635C10.5076 31.8629 10.362 32.0014 10.2554 32.179C10.1489 32.3565 10.0956 32.5613 10.0956 32.7933V36H8.81012ZM14.5296 36.1065C13.9969 36.1065 13.5353 35.9893 13.1447 35.755C12.754 35.5206 12.451 35.1927 12.2356 34.7713C12.0225 34.3499 11.916 33.8575 11.916 33.294C11.916 32.7306 12.0225 32.237 12.2356 31.8132C12.451 31.3894 12.754 31.0604 13.1447 30.826C13.5353 30.5916 13.9969 30.4744 14.5296 30.4744C15.0623 30.4744 15.5239 30.5916 15.9146 30.826C16.3052 31.0604 16.607 31.3894 16.8201 31.8132C17.0355 32.237 17.1433 32.7306 17.1433 33.294C17.1433 33.8575 17.0355 34.3499 16.8201 34.7713C16.607 35.1927 16.3052 35.5206 15.9146 35.755C15.5239 35.9893 15.0623 36.1065 14.5296 36.1065ZM14.5367 35.0767C14.8255 35.0767 15.067 34.9974 15.2612 34.8388C15.4553 34.6778 15.5997 34.4624 15.6944 34.1925C15.7915 33.9226 15.84 33.6219 15.84 33.2905C15.84 32.9567 15.7915 32.6548 15.6944 32.3849C15.5997 32.1127 15.4553 31.8961 15.2612 31.7351C15.067 31.5741 14.8255 31.4936 14.5367 31.4936C14.2408 31.4936 13.9946 31.5741 13.7981 31.7351C13.604 31.8961 13.4584 32.1127 13.3613 32.3849C13.2666 32.6548 13.2192 32.9567 13.2192 33.2905C13.2192 33.6219 13.2666 33.9226 13.3613 34.1925C13.4584 34.4624 13.604 34.6778 13.7981 34.8388C13.9946 34.9974 14.2408 35.0767 14.5367 35.0767ZM20.5971 30.5455V31.5398H17.3727V30.5455H20.5971ZM18.1788 36V30.0305C18.1788 29.6636 18.2546 29.3582 18.4061 29.1143C18.56 28.8705 18.7659 28.6882 19.024 28.5675C19.282 28.4467 19.5685 28.3864 19.8833 28.3864C20.1059 28.3864 20.3036 28.4041 20.4764 28.4396C20.6492 28.4751 20.777 28.5071 20.8599 28.5355L20.6042 29.5298C20.5498 29.5133 20.4811 29.4967 20.3983 29.4801C20.3154 29.4612 20.2231 29.4517 20.1213 29.4517C19.8822 29.4517 19.7129 29.5097 19.6135 29.6257C19.5164 29.7393 19.4679 29.9027 19.4679 30.1158V36H18.1788ZM21.2039 36V30.5455H22.4894V36H21.2039ZM21.8502 29.7713C21.6466 29.7713 21.4714 29.7038 21.3246 29.5689C21.1778 29.4316 21.1044 29.267 21.1044 29.0753C21.1044 28.8812 21.1778 28.7166 21.3246 28.5817C21.4714 28.4444 21.6466 28.3757 21.8502 28.3757C22.0561 28.3757 22.2313 28.4444 22.3757 28.5817C22.5225 28.7166 22.5959 28.8812 22.5959 29.0753C22.5959 29.267 22.5225 29.4316 22.3757 29.5689C22.2313 29.7038 22.0561 29.7713 21.8502 29.7713ZM24.6968 28.7273V36H23.4113V28.7273H24.6968ZM28.0335 36.1065C27.4866 36.1065 27.0143 35.9929 26.6166 35.7656C26.2212 35.536 25.917 35.2116 25.7039 34.7926C25.4909 34.3712 25.3843 33.8752 25.3843 33.3047C25.3843 32.7436 25.4909 32.2512 25.7039 31.8274C25.9194 31.4013 26.22 31.0698 26.6059 30.8331C26.9918 30.594 27.4452 30.4744 27.966 30.4744C28.3022 30.4744 28.6194 30.5289 28.9177 30.6378C29.2184 30.7443 29.4835 30.91 29.7132 31.1349C29.9452 31.3598 30.1275 31.6463 30.26 31.9943C30.3926 32.34 30.4589 32.7519 30.4589 33.2301V33.6243H25.988V32.7578H29.2267C29.2243 32.5116 29.171 32.2926 29.0669 32.1009C28.9627 31.9067 28.8171 31.754 28.6301 31.6428C28.4454 31.5315 28.23 31.4759 27.9838 31.4759C27.721 31.4759 27.4902 31.5398 27.2913 31.6676C27.0924 31.7931 26.9374 31.9588 26.8261 32.1648C26.7172 32.3684 26.6616 32.5921 26.6592 32.8359V33.5923C26.6592 33.9096 26.7172 34.1818 26.8332 34.4091C26.9492 34.634 27.1114 34.8068 27.3197 34.9276C27.528 35.0459 27.7719 35.1051 28.0512 35.1051C28.2383 35.1051 28.4075 35.0791 28.5591 35.027C28.7106 34.9725 28.842 34.8932 28.9532 34.7891C29.0645 34.6849 29.1485 34.5559 29.2054 34.402L30.4056 34.5369C30.3299 34.8542 30.1855 35.1312 29.9724 35.3679C29.7617 35.6023 29.4918 35.7846 29.1627 35.9148C28.8337 36.0426 28.4573 36.1065 28.0335 36.1065Z" fill="#152536"/>
<path d="M16 12C17.1935 12 18.3381 11.5259 19.182 10.682C20.0259 9.83807 20.5 8.69347 20.5 7.5C20.5 6.30653 20.0259 5.16193 19.182 4.31802C18.3381 3.47411 17.1935 3 16 3C14.8065 3 13.6619 3.47411 12.818 4.31802C11.9741 5.16193 11.5 6.30653 11.5 7.5C11.5 8.69347 11.9741 9.83807 12.818 10.682C13.6619 11.5259 14.8065 12 16 12ZM19 7.5C19 8.29565 18.6839 9.05871 18.1213 9.62132C17.5587 10.1839 16.7956 10.5 16 10.5C15.2044 10.5 14.4413 10.1839 13.8787 9.62132C13.3161 9.05871 13 8.29565 13 7.5C13 6.70435 13.3161 5.94129 13.8787 5.37868C14.4413 4.81607 15.2044 4.5 16 4.5C16.7956 4.5 17.5587 4.81607 18.1213 5.37868C18.6839 5.94129 19 6.70435 19 7.5ZM25 19.5C25 21 23.5 21 23.5 21H8.5C8.5 21 7 21 7 19.5C7 18 8.5 13.5 16 13.5C23.5 13.5 25 18 25 19.5ZM23.5 19.494C23.4985 19.125 23.269 18.015 22.252 16.998C21.274 16.02 19.4335 15 16 15C12.565 15 10.726 16.02 9.748 16.998C8.731 18.015 8.503 19.125 8.5 19.494H23.5Z" fill="#212529"/>
</svg>

<svg version="1.2" xmlns="http://www.w3.org/2000/svg" viewBox="0 0 33 38" width="33" height="38"><defs><image  width="16" height="17" id="img1" href="data:image/png;base64,iVBORw0KGgoAAAANSUhEUgAAABAAAAARCAMAAADjcdz2AAAAAXNSR0IB2cksfwAAAHtQTFRFAAAAAAAAAAAAAAAAAAAAAAAAAAAAAAAAAAAAAAAAAAAAAAAAAAAAAAAAAAAAAAAAAAAAAAAAAAAAAAAAAAAAAAAAAAAAAAAAAAAAAAAAAAAAAAAAAAAAAAAAAAAAAAAAAAAAAAAAAAAAAAAAAAAAAAAAAAAAAAAAAAAAvXgcsAAAACl0Uk5TAFn68lRr9v/5c/Eo9fiFFav8oW7Q6N1GvPft7/D+JE39yqKuwvvZZQ0qOrQvAAAAeklEQVR4nGNkAANGIPgDYYFJVkZGoNh3hAAbiGJm/AoX4PkNFv2EKsDI/hEuIPDrLwMX4zuEGQzCQFteIdmCBMgTEGdkfMsiADT1mfQjkIA843O4tNR9oADvLyQNrF8YlZ6iGCHDqHJPmeENP8NfMJfjsRyKLeqMNxgAR2YYW5OJ66AAAAAASUVORK5CYII="/></defs><style>.a{fill:#152536}.b{fill:#212529}</style><path class="a" d="m2.8 36v-7.3h2.8q0.8 0 1.4 0.3 0.5 0.4 0.8 0.9 0.3 0.5 0.3 1.2 0 0.7-0.3 1.3-0.3 0.5-0.8 0.8-0.6 0.3-1.5 0.3h-1.8v-1h1.7q0.5 0 0.8-0.2 0.3-0.2 0.4-0.5 0.2-0.3 0.2-0.7 0-0.4-0.2-0.6-0.1-0.3-0.4-0.5-0.4-0.2-0.8-0.2h-1.3v6.2zm6 0v-5.5h1.3v1q0.2-0.5 0.5-0.8 0.4-0.2 0.9-0.2 0.1 0 0.2 0 0.1 0 0.2 0v1.2q0 0-0.2-0.1-0.2 0-0.4 0-0.3 0-0.6 0.2-0.3 0.1-0.4 0.4-0.2 0.2-0.2 0.6v3.2zm5.7 0.1q-0.8 0-1.4-0.3-0.5-0.4-0.9-1-0.3-0.7-0.3-1.5 0-0.9 0.3-1.5 0.4-0.6 0.9-1 0.6-0.3 1.4-0.3 0.8 0 1.4 0.3 0.6 0.4 0.9 1 0.3 0.6 0.3 1.5 0 0.8-0.3 1.5-0.3 0.6-0.9 1-0.6 0.3-1.4 0.3zm0-1q0.5 0 0.8-0.3 0.3-0.2 0.4-0.6 0.1-0.4 0.1-0.9 0-0.5-0.1-0.9-0.1-0.4-0.4-0.7-0.3-0.2-0.8-0.2-0.4 0-0.7 0.2-0.3 0.3-0.4 0.7-0.2 0.4-0.2 0.9 0 0.5 0.2 0.9 0.1 0.4 0.4 0.6 0.3 0.3 0.7 0.3zm6.1-4.6v1h-3.2v-1zm-2.4 5.5v-6q0-0.5 0.2-0.9 0.2-0.4 0.6-0.5 0.4-0.2 0.9-0.2 0.3 0 0.6 0 0.2 0.1 0.3 0.1l-0.2 1q-0.1 0-0.2 0-0.1 0-0.3 0-0.4 0-0.5 0.1-0.2 0.2-0.2 0.5v5.9zm3.1 0v-5.5h1.3v5.5zm0.6-6.2q-0.3 0-0.5-0.2-0.2-0.2-0.2-0.5 0-0.3 0.2-0.5 0.2-0.2 0.5-0.2 0.3 0 0.5 0.2 0.2 0.2 0.2 0.5 0 0.3-0.2 0.5-0.2 0.2-0.5 0.2zm2.8-1.1v7.3h-1.2v-7.3zm3.3 7.4q-0.8 0-1.4-0.3-0.6-0.4-0.9-1-0.3-0.6-0.3-1.5 0-0.8 0.3-1.5 0.3-0.6 0.9-1 0.6-0.3 1.3-0.3 0.5 0 1 0.1 0.4 0.2 0.8 0.5 0.3 0.4 0.5 0.9 0.2 0.5 0.2 1.2v0.4h-4.4v-0.8h3.2q0-0.4-0.2-0.7-0.1-0.3-0.4-0.5-0.3-0.1-0.6-0.1-0.4 0-0.7 0.2-0.3 0.2-0.5 0.5-0.2 0.3-0.2 0.6v0.8q0 0.5 0.2 0.8 0.2 0.3 0.5 0.5 0.3 0.2 0.7 0.2 0.3 0 0.5-0.1 0.3-0.1 0.4-0.2 0.2-0.2 0.3-0.4l1.2 0.1q-0.1 0.5-0.5 0.9-0.3 0.3-0.8 0.5-0.5 0.2-1.1 0.2z"/><use  href="#img1" x="8" y="4"/><path class="b" d="m16 12c1.2 0 2.3-0.5 3.2-1.3 0.8-0.9 1.3-2 1.3-3.2 0-1.2-0.5-2.3-1.3-3.2-0.9-0.8-2-1.3-3.2-1.3-1.2 0-2.3 0.5-3.2 1.3-0.8 0.9-1.3 2-1.3 3.2 0 1.2 0.5 2.3 1.3 3.2 0.9 0.8 2 1.3 3.2 1.3zm3-4.5c0 0.8-0.3 1.6-0.9 2.1-0.5 0.6-1.3 0.9-2.1 0.9-0.8 0-1.6-0.3-2.1-0.9-0.6-0.5-0.9-1.3-0.9-2.1 0-0.8 0.3-1.6 0.9-2.1 0.5-0.6 1.3-0.9 2.1-0.9 0.8 0 1.6 0.3 2.1 0.9 0.6 0.5 0.9 1.3 0.9 2.1zm6 12c0 1.5-1.5 1.5-1.5 1.5h-15c0 0-1.5 0-1.5-1.5 0-1.5 1.5-6 9-6 7.5 0 9 4.5 9 6zm-1.5 0c0-0.4-0.2-1.5-1.2-2.5-1-1-2.9-2-6.3-2-3.4 0-5.3 1-6.3 2-1 1-1.2 2.1-1.2 2.5z"/></svg>
